icons/Visa.svg

<svg width="50" height="35" viewBox="0 0 50 35" fill="none" xmlns="http://www.w3.org/2000/svg">
<rect x="0.5" y="0.5" width="49" height="34" rx="5.5" fill="white" stroke="#D9D9D9"/>
<path fill-rule="evenodd" clip-rule="evenodd" d="M15.1791 23.7099H12.15L9.87865 14.8638C9.77083 14.4569 9.54192 14.0971 9.2052 13.9276C8.36487 13.5015 7.43888 13.1624 6.42871 12.9914V12.6508H11.3082C11.9817 12.6508 12.4868 13.1624 12.571 13.7566L13.7495 20.1375L16.777 12.6508H19.7219L15.1791 23.7099ZM21.4055 23.7099H18.5448L20.9004 12.6508H23.7611L21.4055 23.7099ZM27.4621 15.7145C27.5463 15.1189 28.0514 14.7783 28.6406 14.7783C29.5666 14.6928 30.5753 14.8638 31.4171 15.2884L31.9222 12.9073C31.0804 12.5668 30.1544 12.3958 29.3141 12.3958C26.5376 12.3958 24.5172 13.9276 24.5172 16.0536C24.5172 17.671 25.9483 18.5202 26.9585 19.0318C28.0514 19.5419 28.4723 19.8825 28.3881 20.3926C28.3881 21.1578 27.5463 21.4984 26.7059 21.4984C25.6958 21.4984 24.6856 21.2433 23.7611 20.8172L23.256 23.1997C24.2662 23.6244 25.359 23.7954 26.3692 23.7954C29.4824 23.8794 31.4171 22.3491 31.4171 20.052C31.4171 17.1594 27.4621 16.9898 27.4621 15.7145ZM41.4287 23.7099L39.1573 12.6508H36.7175C36.2125 12.6508 35.7074 12.9914 35.539 13.5015L31.3329 23.7099H34.2778L34.8656 22.094H38.4839L38.8206 23.7099H41.4287ZM37.1384 15.629L37.9788 19.797H35.6232L37.1384 15.629Z" fill="#172B85"/>
</svg>

<svg width="50" height="35" fill="none" xmlns="http://www.w3.org/2000/svg"><rect x=".5" y=".5" width="49" height="34" rx="5.5" fill="#fff" stroke="#D9D9D9"/><path fill-rule="evenodd" clip-rule="evenodd" d="M15.18 23.71h-3.03l-2.271-8.846c-.108-.407-.337-.767-.674-.936a9.72 9.72 0 0 0-2.776-.937v-.34h4.88a1.28 1.28 0 0 1 1.262 1.106l1.178 6.38 3.028-7.486h2.945L15.179 23.71Zm6.226 0h-2.861L20.9 12.65h2.861l-2.355 11.06Zm6.056-7.996c.084-.595.59-.936 1.179-.936a5.236 5.236 0 0 1 2.776.51l.505-2.38a7.113 7.113 0 0 0-2.608-.512c-2.776 0-4.797 1.532-4.797 3.658 0 1.617 1.431 2.466 2.442 2.978 1.092.51 1.513.85 1.43 1.36 0 .766-.843 1.106-1.683 1.106-1.01 0-2.02-.255-2.945-.68l-.505 2.382c1.01.424 2.103.595 3.113.595 3.113.084 5.048-1.446 5.048-3.743 0-2.893-3.955-3.062-3.955-4.338ZM41.43 23.71l-2.272-11.06h-2.44c-.505 0-1.01.341-1.178.851L31.333 23.71h2.945l.588-1.616h3.618l.337 1.616h2.608Zm-4.29-8.081.84 4.168h-2.356l1.515-4.168Z" fill="#172B85"/></svg>
